src/16/actions/view-media-equalizer.svg

<svg xmlns="http://www.w3.org/2000/svg" viewBox="0 0 16 16">
  <defs id="defs3051">
    <style type="text/css" id="current-color-scheme">
      .ColorScheme-Text {
        color:#5d656b;
      }
      </style>
  </defs>
 <path style="fill:currentColor;fill-opacity:1;stroke:none" 
       d="M 3 2 L 3 3.0917969 C 2.4180804 3.2978015 2 3.8457631 2 4.5 C 2 5.1542369 2.4180804 5.7021985 3 5.9082031 L 3 14 L 4 14 L 4 5.9082031 C 4.5825646 5.7025435 5 5.1546973 5 4.5 C 5 3.8453027 4.5825646 3.2974565 4 3.0917969 L 4 2 L 3 2 z M 7.5 2 L 7.5 10.091797 C 6.9180754 10.297803 6.5 10.84576 6.5 11.5 C 6.5 12.15424 6.9180754 12.702197 7.5 12.908203 L 7.5 14 L 8.5 14 L 8.5 12.908203 C 9.0819246 12.702197 9.5 12.15424 9.5 11.5 C 9.5 10.84576 9.0819246 10.297803 8.5 10.091797 L 8.5 2 L 7.5 2 z M 12 2 L 12 6.0917969 C 11.418075 6.2978026 11 6.8457598 11 7.5 C 11 8.1542402 11.418075 8.7021974 12 8.9082031 L 12 14 L 13 14 L 13 8.9082031 C 13.581925 8.7021974 14 8.1542402 14 7.5 C 14 6.8457598 13.581925 6.2978026 13 6.0917969 L 13 2 L 12 2 z "
     class="ColorScheme-Text"
     />
</svg>

<svg xmlns="http://www.w3.org/2000/svg" viewBox="0 0 16 16"><path d="M3 2v1.092a1.492 1.492 0 0 0 0 2.816V14h1V5.908a1.49 1.49 0 0 0 0-2.816V2H3zm4.5 0v8.092a1.492 1.492 0 0 0 0 2.816V14h1v-1.092a1.492 1.492 0 0 0 0-2.816V2h-1zM12 2v4.092a1.492 1.492 0 0 0 0 2.816V14h1V8.908a1.492 1.492 0 0 0 0-2.816V2h-1z" fill="currentColor" color="#5d656b"/></svg>
